; HEADER_BLOCK_START
; generated by OrcaSlicer 2.2.0 on 2024-12-31 at 08:17:00
; total layer number: 450
; filament_density: 1.24
; filament_diameter: 1.75
; max_z_height: 90.04
; HEADER_BLOCK_END
; THUMBNAIL_BLOCK_START
;
; THUMBNAIL_BLOCK_END
; THUMBNAIL_BLOCK_START
;
; THUMBNAIL_BLOCK_END
; external perimeters extrusion width = 0.42mm
; perimeters extrusion width = 0.45mm
; infill extrusion width = 0.44mm
; solid infill extrusion width = 0.44mm
; top infill extrusion width = 0.38mm
; first layer extrusion width = 0.42mm
; EXECUTABLE_BLOCK_START
M73 P0 R129
M201 X1500 Y1500 Z200 E5000
M203 X140 Y140 Z12 E120
M204 P1000 R1000 T1000
M205 X8.00 Y8.00 Z2.00 E10.00 ; sets the jerk limits, mm/sec
;TYPE:Custom
G90 ; use absoulte coordinates
M83 ; extruder relative mode
M104 S150 ; set nozzle temp to 150
G28 ; home all axes
M420 S1 ;load mesh
M140 S55 ; set bed temp
M190 S55 ; wait for bed temp to stabilize
M104 S230 ; set final extruder temp
M109 S230 ; wait for extruder temp
G1 X0.1 Y10 Z5.0 F1500 ; move to start position
G1 Z0.26 F150 ; Move lower
G4 S0.5 ; wait 0.5 seconds
G1 X0.1 Y150 Z0.3 F1500 E10 ; prime the nozzle
G1 X0.3 F1500
G1 X0.4 Y15 Z0.3 F1500 E15 ; prime the nozzle
G4 S0.1 ; wait 0.1 seconds
G1 Z0.6 F150 ; lift nozzle
M73 P0 R128
G92 E0 ; Reset Extruder
M73 P0 R128
G1 Z2 F150 ; lift nozzle more
G90
G21
M83 ; use relative distances for extrusion
; filament start gcode
M106 S0
;LAYER_CHANGE
M117 DASHBOARD_LAYER_INDICATOR 1
;Z:0.24
;HEIGHT:0.24
;BEFORE_LAYER_CHANGE
G92 E0.0
;0.24
G1 E-.5 F1800
;AFTER_LAYER_CHANGE
;0.24
;_SET_FAN_SPEED_CHANGING_LAYER
M104 S230 ; set nozzle temperature
G1 X135.428 Y133.028 F9000
G1 Z.24
G1 E.5 F1800
;TYPE:Skirt
;WIDTH:0.42
G1 F3000
G1 X137.405 Y132.774 E.07179
G1 X167.875 Y132.776 E1.09797
G1 X169.656 Y132.927 E.06438
G1 X170.817 Y133.2 E.04299
G1 X171.967 Y133.653 E.04453
G1 X173.429 Y134.576 E.06231
G1 X174.308 Y135.39 E.04315
G1 X175.055 Y136.326 E.04315
G1 X175.916 Y137.974 E.06699
G1 X176.257 Y139.121 E.04315
G1 X176.445 Y140.814 E.06135
G1 X176.445 Y150.123 E.33546
G1 X176.305 Y151.581 E.05276
G1 X175.754 Y153.356 E.06699
G1 X174.885 Y154.852 E.06231
G1 X174.104 Y155.759 E.04315
G1 X172.645 Y156.911 E.06699
G1 X171.58 Y157.46 E.04315
G1 X170.116 Y157.917 E.05529
G1 X168.862 Y158.108 E.04569
G1 X167.898 Y158.16 E.0348
G1 X137.137 Y158.153 E1.1084
G1 X135.299 Y157.875 E.06699
G1 X133.691 Y157.24 E.06231
G1 X132.158 Y156.187 E.06699
G1 X131.318 Y155.333 E.04315
G1 X130.616 Y154.363 E.04315
G1 X129.875 Y152.801 E.06231
G1 X129.554 Y151.526 E.04738
G1 X129.451 Y150.573 E.03452
G1 X129.43 Y140.749 E.35402
G1 X129.49 Y139.819 E.03357
G1 X129.876 Y138.134 E.06231
G1 X130.687 Y136.461 E.06699
G1 X131.77 Y135.112 E.06231
G1 X133.23 Y133.96 E.06699
G1 X134.294 Y133.412 E.04315
G1 X135.391 Y133.041 E.04171
G1 X135.523 Y133.386 F9000
G1 F3000
G1 X135.535 Y133.381 E.00044
G1 X137.404 Y133.142 E.06792
G1 X167.875 Y133.144 E1.09797
G1 X169.607 Y133.292 E.06261
G1 X170.726 Y133.557 E.04143
G1 X171.819 Y133.991 E.0424
G1 X173.188 Y134.855 E.05833
G1 X174.028 Y135.629 E.04116
G1 X174.742 Y136.52 E.04116
G1 X175.577 Y138.119 E.065
G1 X175.901 Y139.215 E.04116
G1 X176.076 Y140.814 E.05797
G1 X176.076 Y150.123 E.33546
G1 X175.946 Y151.498 E.04977
G1 X175.411 Y153.221 E.065
G1 X174.598 Y154.621 E.05833
G1 X173.365 Y155.938 E.065
G1 X172.023 Y156.843 E.05833
G1 X170.896 Y157.322 E.04414
G1 X170.019 Y157.561 E.03276
G1 X168.817 Y157.743 E.04379
G1 X167.883 Y157.792 E.03371
G1 X137.165 Y157.786 E1.10686
G1 X135.382 Y157.515 E.065
G1 X134.307 Y157.13 E.04116
G1 X133.301 Y156.587 E.04116
G1 X132.039 Y155.573 E.05833
G1 X131.293 Y154.708 E.04116
G1 X130.685 Y153.742 E.04116
G1 X130.037 Y152.058 E.065
G1 X129.798 Y150.189 E.06792
G1 X129.798 Y140.749 E.34015
G1 X129.929 Y139.374 E.04977
G1 X130.463 Y137.651 E.065
G1 X131.277 Y136.251 E.05833
G1 X132.509 Y134.934 E.065
G1 X133.851 Y134.029 E.05833
G1 X135.486 Y133.4 E.06311
;WIPE_START
G1 X135.535 Y133.381 E-.02614
G1 X136.475 Y133.261 E-.47386
;WIPE_END
G1 X136.455 Y136.622 F9000
G1 E.5 F1800
;TYPE:Brim
G1 F1200
G1 X136.489 Y136.612 E.00127
G1 X137.414 Y136.511 E.03354
G1 X167.87 Y136.513 E1.09741
G1 X168.599 Y136.555 E.02633
G1 X169.146 Y136.629 E.01988
G1 X169.874 Y136.816 E.02706
G1 X170.456 Y137.071 E.02291
G1 X170.994 Y137.411 E.02294
G1 X171.476 Y137.827 E.02294
G1 X171.889 Y138.311 E.02294
G1 X172.226 Y138.852 E.02294
G1 X172.477 Y139.437 E.02294
G1 X172.638 Y140.052 E.02289
G1 X172.708 Y140.822 E.02787
G1 X172.708 Y150.116 E.33491
G1 X172.659 Y150.758 E.02319
G1 X172.517 Y151.379 E.02294
G1 X172.283 Y151.971 E.02294
G1 X171.963 Y152.522 E.02294
G1 X171.564 Y153.018 E.02294
G1 X171.096 Y153.449 E.02294
G1 X170.568 Y153.805 E.02294
G1 X169.994 Y154.077 E.02286
G1 X169.146 Y154.308 E.0317
G1 X168.411 Y154.399 E.02667
G1 X167.747 Y154.426 E.02394
G1 X137.411 Y154.426 E1.0931
G1 X136.769 Y154.378 E.02319
G1 X136.149 Y154.235 E.02294
G1 X135.557 Y154.002 E.02294
G1 X135.006 Y153.682 E.02294
G1 X134.51 Y153.283 E.02294
G1 X134.079 Y152.814 E.02294
G1 X133.723 Y152.286 E.02294
G1 X133.45 Y151.711 E.02294
G1 X133.267 Y151.104 E.02283
G1 X133.167 Y150.179 E.03354
G1 X133.167 Y140.756 E.33954
G1 X133.215 Y140.114 E.02319
G1 X133.357 Y139.493 E.02294
G1 X133.591 Y138.901 E.02294
G1 X133.911 Y138.35 E.02294
G1 X134.31 Y137.854 E.02294
G1 X134.779 Y137.423 E.02294
G1 X135.307 Y137.067 E.02294
G1 X135.882 Y136.794 E.02294
G1 X136.417 Y136.633 E.02012
G1 X136.523 Y136.988 F9000
G1 F1200
G1 X136.573 Y136.973 E.00186
G1 X137.44 Y136.879 E.03145
G1 X167.856 Y136.881 E1.09597
G1 X168.56 Y136.922 E.02541
G1 X169.069 Y136.991 E.01851
G1 X169.744 Y137.163 E.02512
G1 X170.275 Y137.394 E.02085
G1 X170.767 Y137.703 E.02094
G1 X171.219 Y138.094 E.02154
G1 X171.596 Y138.537 E.02094
G1 X171.902 Y139.031 E.02094
G1 X172.125 Y139.55 E.02034
G1 X172.275 Y140.125 E.02141
G1 X172.339 Y140.844 E.02602
G1 X172.339 Y150.098 E.33348
G1 X172.292 Y150.711 E.02214
G1 X172.166 Y151.261 E.02034
G1 X171.954 Y151.802 E.02094
G1 X171.653 Y152.319 E.02154
G1 X171.288 Y152.771 E.02094
G1 X170.873 Y153.153 E.02034
G1 X170.392 Y153.479 E.02094
G1 X169.875 Y153.726 E.02062
G1 X169.066 Y153.946 E.0302
G1 X168.385 Y154.031 E.02473
G1 X167.737 Y154.058 E.02337
G1 X137.421 Y154.057 E1.09239
G1 X136.833 Y154.013 E.02124
G1 X136.266 Y153.884 E.02094
G1 X135.725 Y153.672 E.02094
G1 X135.222 Y153.381 E.02094
G1 X134.769 Y153.018 E.02094
G1 X134.374 Y152.591 E.02094
G1 X134.048 Y152.11 E.02094
G1 X133.798 Y151.586 E.02094
G1 X133.629 Y151.02 E.02127
G1 X133.535 Y150.153 E.03145
G1 X133.535 Y140.774 E.33796
G1 X133.582 Y140.161 E.02214
G1 X133.709 Y139.611 E.02034
G1 X133.921 Y139.07 E.02094
G1 X134.221 Y138.553 E.02154
G1 X134.586 Y138.101 E.02094
G1 X135.002 Y137.719 E.02034
G1 X135.483 Y137.393 E.02094
G1 X136.007 Y137.143 E.02094
G1 X136.485 Y137 E.01797
G1 X136.591 Y137.354 F9000
G1 F1200
G1 X136.656 Y137.335 E.00245
G1 X137.466 Y137.248 E.02936
G1 X167.842 Y137.25 E1.09453
G1 X168.52 Y137.289 E.02449
G1 X168.992 Y137.352 E.01716
G1 X169.616 Y137.511 E.02319
G1 X170.095 Y137.717 E.0188
G1 X170.54 Y137.996 E.01891
G1 X170.95 Y138.349 E.0195
G1 X171.301 Y138.761 E.01952
G1 X171.569 Y139.195 E.01836
G1 X171.772 Y139.662 E.01834
G1 X171.911 Y140.197 E.01993
G1 X171.971 Y140.865 E.02417
G1 X171.971 Y150.08 E.33204
G1 X171.925 Y150.663 E.02109
G1 X171.81 Y151.16 E.01836
G1 X171.624 Y151.634 E.01834
G1 X171.343 Y152.116 E.02011
G1 X171.024 Y152.512 E.01834
G1 X170.649 Y152.858 E.01837
G1 X170.215 Y153.154 E.01895
G1 X169.755 Y153.374 E.01838
G1 X168.987 Y153.585 E.02869
G1 X168.359 Y153.663 E.02279
G1 X167.727 Y153.689 E.0228
G1 X137.431 Y153.689 E1.09168
G1 X136.896 Y153.648 E.01931
G1 X136.383 Y153.533 E.01895
G1 X135.894 Y153.342 E.01894
G1 X135.438 Y153.08 E.01894
G1 X135.027 Y152.753 E.01893
G1 X134.67 Y152.368 E.01894
G1 X134.374 Y151.933 E.01893
G1 X134.147 Y151.46 E.01891
G1 X133.991 Y150.937 E.01969
G1 X133.904 Y150.127 E.02936
G1 X133.904 Y140.792 E.33636
G1 X133.947 Y140.225 E.0205
G1 X134.06 Y139.728 E.01836
G1 X134.25 Y139.238 E.01893
G1 X134.531 Y138.756 E.02011
G1 X134.862 Y138.348 E.01893
G1 X135.238 Y138.004 E.01837
G1 X135.659 Y137.718 E.01836
G1 X136.133 Y137.491 E.01891
G1 X136.553 Y137.366 E.01579
G1 X136.658 Y137.721 F9000
G1 F1200
G1 X136.739 Y137.697 E.00305
G1 X137.492 Y137.616 E.02727
G1 X167.828 Y137.618 E1.09311
G1 X168.481 Y137.656 E.02358
G1 X168.916 Y137.714 E.0158
G1 X169.488 Y137.858 E.02128
G1 X169.916 Y138.041 E.01675
G1 X170.314 Y138.289 E.01689
G1 X170.682 Y138.604 E.01745
G1 X171.007 Y138.986 E.01809
G1 X171.238 Y139.359 E.01579
G1 X171.419 Y139.774 E.01633
G1 X171.548 Y140.27 E.01844
G1 X171.602 Y140.887 E.02232
G1 X171.602 Y150.061 E.33059
G1 X171.56 Y150.599 E.01943
G1 X171.459 Y151.042 E.0164
G1 X171.294 Y151.465 E.01634
G1 X171.034 Y151.913 E.01868
G1 X170.748 Y152.265 E.01634
G1 X170.413 Y152.573 E.01641
G1 X170.037 Y152.829 E.01636
G1 X169.634 Y153.024 E.01612
G1 X168.907 Y153.224 E.02717
G1 X168.324 Y153.295 E.02116
G1 X167.717 Y153.321 E.02191
G1 X137.44 Y153.32 E1.09097
G1 X136.959 Y153.284 E.0174
G1 X136.499 Y153.181 E.01696
G1 X136.061 Y153.012 E.01693
G1 X135.653 Y152.779 E.01693
G1 X135.285 Y152.487 E.01693
G1 X134.964 Y152.144 E.01693
G1 X134.699 Y151.756 E.01693
G1 X134.495 Y151.335 E.01685
G1 X134.352 Y150.854 E.01809
G1 X134.272 Y150.101 E.02727
G1 X134.272 Y140.81 E.33478
G1 X134.312 Y140.288 E.01887
G1 X134.411 Y139.844 E.01639
G1 X134.58 Y139.407 E.01689
G1 X134.84 Y138.959 E.01866
G1 X135.125 Y138.608 E.0163
G1 X135.461 Y138.299 E.01641
G1 X135.837 Y138.043 E.01639
G1 X136.258 Y137.84 E.01686
G1 X136.62 Y137.732 E.0136
G1 X136.725 Y138.087 F9000
G1 F1200
G1 X136.822 Y138.058 E.00364
G1 X137.517 Y137.985 E.02519
G1 X167.814 Y137.987 E1.09169
G1 X168.442 Y138.023 E.02267
G1 X168.84 Y138.075 E.01446
G1 X169.361 Y138.206 E.01938
G1 X169.737 Y138.366 E.01471
G1 X170.088 Y138.582 E.01486
G1 X170.425 Y138.871 E.016
G1 X170.713 Y139.211 E.01603
G1 X170.914 Y139.538 E.01382
G1 X171.066 Y139.887 E.01374
G1 X171.184 Y140.342 E.01692
G1 X171.234 Y140.908 E.02047
G1 X171.234 Y150.043 E.32916
G1 X171.196 Y150.535 E.01779
G1 X171.107 Y150.926 E.01445
G1 X170.964 Y151.297 E.01431
G1 X170.724 Y151.71 E.01723
G1 X170.473 Y152.018 E.01431
G1 X170.189 Y152.278 E.01389
G1 X169.859 Y152.504 E.01441
G1 X169.513 Y152.673 E.01386
G1 X168.828 Y152.862 E.02564
G1 X168.29 Y152.928 E.01953
G1 X167.707 Y152.952 E.02102
G1 X137.45 Y152.951 E1.09025
G1 X137.021 Y152.919 E.01551
G1 X136.614 Y152.83 E.01499
G1 X136.228 Y152.681 E.01493
G1 X135.867 Y152.477 E.01493
G1 X135.542 Y152.221 E.01493
G1 X135.258 Y151.919 E.01493
G1 X135.023 Y151.578 E.01493
G1 X134.844 Y151.209 E.01475
G1 X134.714 Y150.771 E.01648
G1 X134.641 Y150.076 E.02519
G1 X134.641 Y140.828 E.33321
G1 X134.676 Y140.351 E.01726
G1 X134.763 Y139.959 E.01443
G1 X134.91 Y139.575 E.01484
G1 X135.15 Y139.162 E.0172
G1 X135.401 Y138.855 E.01428
G1 X135.697 Y138.584 E.01447
G1 X136.029 Y138.36 E.01444
G1 X136.383 Y138.188 E.01419
G1 X136.687 Y138.098 E.0114
G1 X136.792 Y138.453 F9000
G1 F1200
G1 X136.904 Y138.42 E.00424
G1 X137.543 Y138.353 E.02312
G1 X167.8 Y138.355 E1.09028
G1 X168.403 Y138.39 E.02176
G1 X168.764 Y138.437 E.01312
G1 X169.236 Y138.555 E.01751
G1 X169.56 Y138.691 E.01267
G1 X169.863 Y138.876 E.0128
G1 X170.156 Y139.126 E.01389
G1 X170.418 Y139.435 E.01457
G1 X170.582 Y139.702 E.0113
G1 X170.713 Y140 E.01172
G1 X170.82 Y140.414 E.01541
G1 X170.865 Y140.929 E.01862
G1 X170.865 Y150.024 E.32774
G1 X170.831 Y150.472 E.01618
G1 X170.756 Y150.811 E.0125
G1 X170.634 Y151.128 E.01226
G1 X170.415 Y151.506 E.01575
G1 X170.209 Y151.758 E.01171
G1 X169.965 Y151.984 E.01199
G1 X169.68 Y152.18 E.01247
G1 X169.392 Y152.322 E.01158
G1 X168.748 Y152.501 E.02408
G1 X168.255 Y152.561 E.01788
G1 X167.697 Y152.584 E.02013
G1 X137.468 Y152.583 E1.08924
G1 X137.082 Y152.554 E.01395
G1 X136.729 Y152.477 E.01304
G1 X136.393 Y152.35 E.01293
G1 X136.081 Y152.174 E.01292
G1 X135.798 Y151.953 E.01292
G1 X135.552 Y151.693 E.01292
G1 X135.347 Y151.398 E.01292
G1 X135.193 Y151.084 E.01263
G1 X135.076 Y150.688 E.01485
G1 X135.009 Y150.05 E.02312
G1 X135.009 Y140.846 E.33165
G1 X135.041 Y140.412 E.01568
G1 X135.115 Y140.074 E.01248
G1 X135.241 Y139.743 E.01276
G1 X135.46 Y139.366 E.01571
G1 X135.675 Y139.103 E.01224
G1 X135.92 Y138.88 E.01195
G1 X136.207 Y138.684 E.0125
G1 X136.509 Y138.537 E.01211
G1 X136.753 Y138.465 E.00919
G1 X136.862 Y138.826 F9000
G1 F1200
G1 X137.036 Y138.773 E.00653
G1 X137.448 Y138.722 E.01496
G1 X167.736 Y138.722 E1.09139
G1 X168.41 Y138.765 E.02434
G1 X169.142 Y138.921 E.02695
G1 X169.373 Y139.022 E.0091
G1 X169.577 Y139.138 E.00844
G1 X170.078 Y139.604 E.02466
G1 X170.204 Y139.794 E.00821
G1 X170.326 Y140.042 E.00996
G1 X170.487 Y140.773 E.02696
G1 X170.497 Y150.075 E.33517
G1 X170.394 Y150.688 E.02242
G1 X170.346 Y150.844 E.00586
G1 X170.223 Y151.105 E.01041
G1 X170.018 Y151.407 E.01316
G1 X169.722 Y151.696 E.01491
G1 X169.481 Y151.86 E.01049
G1 X168.68 Y152.14 E.03058
G1 X168.239 Y152.193 E.01601
G1 X167.807 Y152.214 E.01558
G1 X137.455 Y152.215 E1.09366
G1 X136.635 Y152.045 E.0302
G1 X136.39 Y151.925 E.00983
G1 X136.163 Y151.769 E.00991
G1 X135.905 Y151.523 E.01286
G1 X135.79 Y151.376 E.00672
G1 X135.511 Y150.828 E.02216
G1 X135.393 Y150.307 E.01925
G1 X135.378 Y140.802 E.34252
G1 X135.476 Y140.217 E.02136
G1 X135.552 Y139.982 E.0089
G1 X135.734 Y139.637 E.01407
G1 X135.949 Y139.365 E.01248
G1 X136.292 Y139.083 E.016
G1 X136.664 Y138.886 E.01519
G1 X136.824 Y138.837 E.00602
G1 X136.928 Y139.184 F9000
G1 F1200
G1 X137.077 Y139.14 E.00562
G1 X137.441 Y139.09 E.01323
G1 X167.74 Y139.09 E1.09177
G1 X168.331 Y139.125 E.02134
G1 X168.99 Y139.257 E.02423
G1 X169.185 Y139.339 E.00762
G1 X169.404 Y139.464 E.00908
G1 X169.767 Y139.802 E.01788
G1 X169.9 Y140.004 E.0087
G1 X169.997 Y140.21 E.0082
G1 X170.128 Y140.856 E.02376
G1 X170.128 Y150.084 E.33251
G1 X170.03 Y150.629 E.01994
G1 X169.996 Y150.731 E.00391
G1 X169.889 Y150.951 E.00879
G1 X169.711 Y151.202 E.01109
G1 X169.465 Y151.431 E.01212
G1 X169.276 Y151.555 E.00813
G1 X168.646 Y151.773 E.02404
G1 X168.225 Y151.825 E.01527
G1 X167.786 Y151.846 E.01582
G1 X137.445 Y151.847 E1.0933
G1 X136.799 Y151.716 E.02374
G1 X136.593 Y151.617 E.00827
G1 X136.424 Y151.509 E.0072
G1 X136.154 Y151.251 E.01346
G1 X136.083 Y151.153 E.00437
G1 X135.838 Y150.659 E.01988
G1 X135.753 Y150.226 E.0159
G1 X135.746 Y140.792 E.33993
G1 X135.839 Y140.276 E.01891
G1 X135.902 Y140.096 E.00685
G1 X136.061 Y139.808 E.01186
G1 X136.239 Y139.592 E.01008
G1 X136.526 Y139.367 E.01313
G1 X136.837 Y139.211 E.01253
G1 X136.889 Y139.196 E.00198
G1 X137.003 Y139.545 F9000
G1 F1200
G1 X137.125 Y139.505 E.00462
G1 X137.433 Y139.459 E.01125
G1 X167.743 Y139.459 E1.09215
G1 X168.258 Y139.486 E.0186
G1 X168.837 Y139.593 E.02122
G1 X169.049 Y139.681 E.00827
G1 X169.224 Y139.786 E.00734
G1 X169.456 Y140 E.0114
G1 X169.598 Y140.214 E.00923
G1 X169.664 Y140.366 E.00599
G1 X169.76 Y140.845 E.01759
G1 X169.76 Y150.094 E.33326
G1 X169.667 Y150.564 E.01726
G1 X169.554 Y150.798 E.00937
G1 X169.411 Y150.989 E.0086
G1 X169.217 Y151.159 E.00929
G1 X169.076 Y151.246 E.00598
G1 X168.61 Y151.406 E.01773
G1 X168.211 Y151.456 E.0145
G1 X167.766 Y151.478 E.01607
G1 X137.434 Y151.478 E1.09296
G1 X136.963 Y151.386 E.01731
G1 X136.797 Y151.31 E.00656
G1 X136.614 Y151.193 E.00783
G1 X136.412 Y150.988 E.01037
G1 X136.199 Y150.585 E.01643
G1 X136.121 Y150.236 E.01287
G1 X136.115 Y140.782 E.34067
G1 X136.202 Y140.34 E.01621
G1 X136.247 Y140.224 E.0045
G1 X136.385 Y139.983 E.00999
G1 X136.467 Y139.881 E.00472
G1 X136.688 Y139.698 E.01037
G1 X136.944 Y139.564 E.01039
G1 X136.965 Y139.557 E.00079
G1 X137.092 Y139.902 F9000
G1 F1200
G1 X137.18 Y139.869 E.00338
G1 X137.425 Y139.827 E.00897
G1 X167.746 Y139.827 E1.09255
G1 X168.195 Y139.849 E.0162
G1 X168.684 Y139.928 E.01784
G1 X168.913 Y140.024 E.00897
G1 X169.034 Y140.101 E.00513
G1 X169.152 Y140.208 E.00576
G1 X169.256 Y140.352 E.00641
G1 X169.331 Y140.525 E.00677
G1 X169.391 Y140.834 E.01136
G1 X169.391 Y150.103 E.33399
G1 X169.334 Y150.406 E.01112
